images/Mesto.svg

<svg width="142" height="33" viewBox="0 0 142 33" fill="white" xmlns="http://www.w3.org/2000/svg">
<path d="M0 6.73727V32.6084H3.75838V13.8746H4.00127L11.7226 32.5705H14.8418L22.5631 13.8872H22.806V32.6084H26.5643V6.73727H21.7705L13.4356 26.848H13.1288L4.79385 6.73727H0Z" fill="white"/>
<path d="M41.1313 33C45.4138 33 48.4435 30.9157 49.3128 27.7576L45.695 27.1133C45.0047 28.945 43.3428 29.8798 41.1696 29.8798C37.897 29.8798 35.6982 27.7828 35.596 24.0436H49.5557V22.7046C49.5557 15.6936 45.3115 12.9524 40.8628 12.9524C35.3914 12.9524 31.7864 17.0706 31.7864 23.033C31.7864 29.0587 35.3403 33 41.1313 33ZM35.6088 21.214C35.7622 18.4601 37.782 16.0726 40.8884 16.0726C43.8542 16.0726 45.7973 18.2454 45.8101 21.214H35.6088Z" fill="white"/>
<path d="M68.5106 17.9422C67.718 14.9231 65.3275 12.9524 61.0833 12.9524C56.6474 12.9524 53.5026 15.2641 53.5026 18.7001C53.5026 21.454 55.19 23.2857 58.8717 24.0942L62.1955 24.8142C64.0874 25.2311 64.9695 26.0648 64.9695 27.2775C64.9695 28.7808 63.346 29.9556 60.8404 29.9556C58.5521 29.9556 57.082 28.9829 56.6218 27.0754L52.9273 27.6312C53.5665 31.0672 56.4556 33 60.866 33C65.6087 33 68.8941 30.5114 68.8941 26.9996C68.8941 24.2584 67.1299 22.5656 63.525 21.7445L60.4058 21.0371C58.2453 20.5318 57.3121 19.8118 57.3249 18.498C57.3121 17.0074 58.9484 15.9463 61.1216 15.9463C63.4994 15.9463 64.5988 17.2474 65.0462 18.5486L68.5106 17.9422Z" fill="white"/>
<path d="M82.2625 13.2051H78.2357V8.55633H74.4134V13.2051H71.5371V16.2368H74.4134V27.6944C74.4006 31.2188 77.1235 32.9242 80.1405 32.861C81.3549 32.8484 82.1731 32.621 82.6205 32.4568L81.9302 29.3366C81.6745 29.3871 81.2015 29.5008 80.5879 29.5008C79.3479 29.5008 78.2357 29.0966 78.2357 26.9112V16.2368H82.2625V13.2051Z" fill="white"/>
<path d="M94.5508 33C100.086 33 103.704 28.9955 103.704 22.9951C103.704 16.9569 100.086 12.9524 94.5508 12.9524C89.0155 12.9524 85.3977 16.9569 85.3977 22.9951C85.3977 28.9955 89.0155 33 94.5508 33ZM94.5636 29.8293C90.9458 29.8293 89.2584 26.7091 89.2584 22.9825C89.2584 19.2686 90.9458 16.1105 94.5636 16.1105C98.1558 16.1105 99.8432 19.2686 99.8432 22.9825C99.8432 26.7091 98.1558 29.8293 94.5636 29.8293Z" fill="white"/>
<path d="M107.176 8.8932H108.233V5.52456H110.142C110.219 5.52456 110.291 5.52456 110.364 5.52035L112.205 8.8932H113.432L111.459 5.33087C112.571 4.95611 113.091 4.05921 113.091 2.91387C113.091 1.38956 112.171 0.269491 110.125 0.269491H107.176V8.8932ZM108.233 4.58135V1.19587H110.091C111.506 1.19587 112.051 1.87801 112.051 2.91387C112.051 3.94973 111.506 4.58135 110.108 4.58135H108.233Z" fill="white"/>
<path d="M118.84 6.24882C118.84 7.46153 117.903 8.01735 117.153 8.01735C116.318 8.01735 115.721 7.411 115.721 6.46778V2.42542H114.716V6.53515C114.716 8.18579 115.602 8.97742 116.829 8.97742C117.818 8.97742 118.465 8.45528 118.772 7.79839H118.84V8.8932H119.846V2.42542H118.84V6.24882Z" fill="white"/>
<path d="M126.324 3.87393C126.009 2.95598 125.301 2.3412 124.006 2.3412C122.625 2.3412 121.603 3.11599 121.603 4.21079C121.603 5.10348 122.14 5.70142 123.341 5.97933L124.432 6.23198C125.093 6.38357 125.404 6.69516 125.404 7.14151C125.404 7.69733 124.807 8.1521 123.87 8.1521C123.047 8.1521 122.532 7.8026 122.353 7.10782L121.398 7.34363C121.633 8.44264 122.549 9.02795 123.887 9.02795C125.408 9.02795 126.443 8.20684 126.443 7.09098C126.443 6.18987 125.872 5.62141 124.705 5.33929L123.733 5.10348C122.958 4.914 122.608 4.65714 122.608 4.16027C122.608 3.60444 123.205 3.2002 124.006 3.2002C124.884 3.2002 125.246 3.68023 125.421 4.12658L126.324 3.87393Z" fill="white"/>
<path d="M132.593 3.87393C132.278 2.95598 131.571 2.3412 130.275 2.3412C128.895 2.3412 127.872 3.11599 127.872 4.21079C127.872 5.10348 128.409 5.70142 129.611 5.97933L130.701 6.23198C131.362 6.38357 131.673 6.69516 131.673 7.14151C131.673 7.69733 131.076 8.1521 130.139 8.1521C129.317 8.1521 128.801 7.8026 128.622 7.10782L127.667 7.34363C127.902 8.44264 128.818 9.02795 130.156 9.02795C131.677 9.02795 132.713 8.20684 132.713 7.09098C132.713 6.18987 132.142 5.62141 130.974 5.33929L130.003 5.10348C129.227 4.914 128.878 4.65714 128.878 4.16027C128.878 3.60444 129.474 3.2002 130.275 3.2002C131.153 3.2002 131.515 3.68023 131.69 4.12658L132.593 3.87393Z" fill="white"/>
<path d="M134.227 8.8932H135.232V2.42542H134.227V8.8932ZM134.738 1.34745C135.13 1.34745 135.454 1.04428 135.454 0.673727C135.454 0.303177 135.13 0 134.738 0C134.346 0 134.022 0.303177 134.022 0.673727C134.022 1.04428 134.346 1.34745 134.738 1.34745Z" fill="white"/>
<path d="M139 9.04479C140.142 9.04479 140.739 8.43843 140.943 8.01735H140.994V8.8932H142V4.63187C142 2.57701 140.415 2.3412 139.58 2.3412C138.591 2.3412 137.466 2.67807 136.955 3.85709L137.909 4.19395C138.131 3.72234 138.655 3.21705 139.614 3.21705C140.538 3.21705 140.994 3.70129 140.994 4.53082V4.5645C140.994 5.04453 140.5 5.00242 139.307 5.15401C138.092 5.30981 136.767 5.57509 136.767 7.05729C136.767 8.32053 137.756 9.04479 139 9.04479ZM139.154 8.1521C138.352 8.1521 137.773 7.79839 137.773 7.10782C137.773 6.34988 138.472 6.11407 139.256 6.01302C139.682 5.96249 140.824 5.84458 140.994 5.64247V6.552C140.994 7.36047 140.347 8.1521 139.154 8.1521Z" fill="white"/>
</svg>

<svg width="142" height="33" fill="#fff" xmlns="http://www.w3.org/2000/svg"><path d="M0 6.737v25.871h3.758V13.875h.243l7.722 18.696h3.119l7.721-18.684h.243v18.721h3.758V6.738H21.77l-8.334 20.11h-.307L4.794 6.738H0ZM41.131 33c4.283 0 7.313-2.084 8.182-5.242l-3.618-.645c-.69 1.832-2.352 2.767-4.525 2.767-3.273 0-5.472-2.097-5.574-5.836h13.96v-1.34c0-7.01-4.244-9.752-8.693-9.752-5.472 0-9.077 4.119-9.077 10.081 0 6.026 3.554 9.967 9.345 9.967ZM35.61 21.214c.153-2.754 2.173-5.141 5.28-5.141 2.965 0 4.908 2.172 4.921 5.141H35.61ZM68.51 17.942c-.792-3.019-3.183-4.99-7.427-4.99-4.436 0-7.58 2.312-7.58 5.748 0 2.754 1.687 4.586 5.369 5.394l3.324.72c1.891.417 2.773 1.25 2.773 2.463 0 1.504-1.623 2.679-4.129 2.679-2.288 0-3.758-.973-4.218-2.88l-3.695.555c.64 3.436 3.529 5.369 7.939 5.369 4.743 0 8.028-2.489 8.028-6 0-2.742-1.764-4.434-5.369-5.256l-3.12-.707c-2.16-.505-3.093-1.225-3.08-2.539-.013-1.49 1.623-2.552 3.797-2.552 2.377 0 3.477 1.301 3.924 2.603l3.465-.607ZM82.263 13.205h-4.027V8.556h-3.823v4.65h-2.876v3.03h2.876v11.458c-.012 3.525 2.71 5.23 5.728 5.167 1.214-.013 2.032-.24 2.48-.404l-.69-3.12c-.257.05-.73.164-1.343.164-1.24 0-2.352-.404-2.352-2.59V16.237h4.026v-3.032ZM94.55 33c5.536 0 9.154-4.005 9.154-10.005 0-6.038-3.618-10.043-9.153-10.043s-9.153 4.005-9.153 10.043c0 6 3.618 10.005 9.153 10.005Zm.014-3.17c-3.618 0-5.306-3.12-5.306-6.847 0-3.714 1.688-6.873 5.306-6.873 3.592 0 5.28 3.159 5.28 6.873 0 3.726-1.688 6.846-5.28 6.846ZM107.176 8.893h1.057V5.525h1.909c.077 0 .149 0 .222-.005l1.841 3.373h1.227l-1.973-3.562c1.112-.375 1.632-1.272 1.632-2.417 0-1.524-.92-2.645-2.966-2.645h-2.949v8.624Zm1.057-4.312V1.196h1.858c1.415 0 1.96.682 1.96 1.718s-.545 1.667-1.943 1.667h-1.875ZM118.84 6.249c0 1.213-.937 1.768-1.687 1.768-.835 0-1.432-.606-1.432-1.55V2.426h-1.005v4.11c0 1.65.886 2.442 2.113 2.442.989 0 1.636-.522 1.943-1.179h.068v1.095h1.006V2.425h-1.006V6.25ZM126.324 3.874c-.315-.918-1.023-1.533-2.318-1.533-1.381 0-2.403.775-2.403 1.87 0 .892.537 1.49 1.738 1.768l1.091.253c.661.152.972.463.972.91 0 .555-.597 1.01-1.534 1.01-.823 0-1.338-.35-1.517-1.044l-.955.236c.235 1.099 1.151 1.684 2.489 1.684 1.521 0 2.556-.821 2.556-1.937 0-.901-.571-1.47-1.738-1.752l-.972-.236c-.775-.189-1.125-.446-1.125-.943 0-.556.597-.96 1.398-.96.878 0 1.24.48 1.415.927l.903-.253ZM132.593 3.874c-.315-.918-1.022-1.533-2.318-1.533-1.38 0-2.403.775-2.403 1.87 0 .892.537 1.49 1.739 1.768l1.09.253c.661.152.972.463.972.91 0 .555-.597 1.01-1.534 1.01-.822 0-1.338-.35-1.517-1.044l-.955.236c.235 1.099 1.151 1.684 2.489 1.684 1.521 0 2.557-.821 2.557-1.937 0-.901-.571-1.47-1.739-1.752l-.971-.236c-.776-.189-1.125-.446-1.125-.943 0-.556.596-.96 1.397-.96.878 0 1.24.48 1.415.927l.903-.253ZM134.227 8.893h1.005V2.425h-1.005v6.468Zm.511-7.546c.392 0 .716-.303.716-.673 0-.37-.324-.674-.716-.674-.392 0-.716.303-.716.674 0 .37.324.673.716.673ZM139 9.045c1.142 0 1.739-.607 1.943-1.028h.051v.876H142V4.632c0-2.055-1.585-2.29-2.42-2.29-.989 0-2.114.336-2.625 1.515l.954.337c.222-.472.746-.977 1.705-.977.924 0 1.38.484 1.38 1.314v.034c0 .48-.494.437-1.687.589-1.215.156-2.54.421-2.54 1.903 0 1.264.989 1.988 2.233 1.988Zm.154-.893c-.802 0-1.381-.354-1.381-1.044 0-.758.699-.994 1.483-1.095.426-.05 1.568-.168 1.738-.37v.909c0 .808-.647 1.6-1.84 1.6Z"/></svg>
